X:1
T:Let Us Away
T:Let Us Away
T:George T. Kirkpatrick
T:Frances Jane (Fanny) Crosby, 1900
T:Public Domain Courtesy of the Cyber Hymnal™
T:Public Domain Courtesy of the Cyber Hymnal™
C:George T. Kirkpatrick
Z:Public Domain
Z:Courtesy of the Cyber Hymnal™
%%score ( 1 2 ) 3
L:1/8
Q:1/4=105
M:6/8
K:A
V:1 treble 
V:2 treble 
V:3 bass 
V:1
 [CE][^B,^D][CE] [Ec]2 [=D^B] | [CA][EG][DF] [CE]3 | [B,D][^A,C][B,D] [DG]2 [DF] | F3 [CE]2 z | %4
w: 1.~Let us a- way, no|long- er de- lay,|Morn- ing with joy is|bright; Let|
w: 2.~Let us a- way, the|mes- sage o- bey,|Je- sus re- peats the|call; Come|
w: 3.~Let us a- way, we|can- not de- lay,|Har- vest will soon be|o’er; Mo-|
w: 4.~Let us a- way, O|let us a- way,|Lift- ing our eyes a-|bove; Faith-|
 [CE][^B,^D][CE] [Ec]2 [=Ge] | [Fe][Fd][DF] [DB]3 | [CE][Fd][Ec] [Ec]2 [DB] | [CA]3- [CA]2 z || %8
w: * us a- way and|la- bor to- day|Out in the fields so|white. *|
w: * with a will, our|mis- sion ful- fill,|Haste to the work for|all. *|
w: * ments and hours, like|beau- ti- ful flow’rs,|Soon will re- turn no|more. *|
w: * ful and true our|la- bor pur- sue,|Trust- ing a Sav- ior’s|love. *|
"^Refrain" (z [CE][CE]) (z [CE][CE]) | z z x8 | (z [CE][CE]) (z [CF]) x | (z z D) x5 | %12
w: ||||
w: ||||
w: ||||
w: ||||
 z [CE][CE] (z [CE][CE]) | z z x8 | (z [DA]) (z [=DA]) x2 | (z D [DB]2) z x | %16
w: ||||
w: ||||
w: ||||
w: ||||
 z [CE][CE] (z [CE][CE]) | z [CE][CE] z x4 | (z [DG]) (z [FB]) x2 | (z [^EG][EG] [EGc]2) z | %20
w: ||||
w: ||||
w: ||||
w: ||||
 z [=Gc][Gc] (z [FB][FB]) | z [EF][EF] (z [DF][DF]) | E2 [Ec]2 [EB] x | [CEA]3- [CEA]2 z |] %24
w: ||||
w: ||* On- ward,|on- *|
w: ||||
w: ||||
V:2
 x6 | x6 | x6 | DC^B, x3 | x6 | x6 | x6 | x6 || A3 G3 | F3 CC (E3 CC) | (A3 G2 C) | G3- DD G2 D | %12
 (B3 A3 | A3 DD) (A3 DD) | (B2 ^D) (G2 ^D) | B3- D x2 | c3 c3 | A3 E3 CC | (F2 D) (A2 F) | c3- x3 | %20
 e3 d3 | c3 B3 | E3- d x2 | x6 |] %24
V:3
 [A,,A,][A,,A,][A,,A,] [A,,A,]2 [A,,E,] | [A,,E,][A,,A,][A,,A,] [A,,A,]3 | %2
 [E,G,][E,G,][E,G,] [E,B,]2 [E,G,] | [A,,A,]3- [A,,A,]2 z | [A,,A,][A,,A,][A,,A,] [A,,A,]2 [C,A,] | %5
 [D,A,][D,A,][D,A,] [D,F,]3 | [E,A,][E,A,][E,A,] [E,G,]2 [E,G,] | [A,,A,]3- [A,,A,]2 z || %8
 (A,,[E,A,][E,A,]) (A,,[E,A,][E,A,]) | (A,,[E,A,][E,A,]) (A,,[E,A,][E,A,]) x4 | %10
 (A,,[E,A,][E,A,]) (A,,[E,A,])[E,A,] | (E,[G,B,][G,B,]) (E,[G,B,][G,B,]) x2 | %12
 (A,,[E,A,][E,A,]) (A,,[E,A,][E,A,]) | (D,[F,A,][F,A,]) (D,[F,A,][F,A,]) x4 | %14
 (B,,[F,A,][F,A,]) (B,,[F,A,][F,A,]) | (E,[G,B,][G,B,]) (E,F,E,) | %16
 (A,,[E,A,][E,A,]) (A,,[E,A,][E,A,]) | (A,,[E,A,][E,A,]) (A,,[E,A,][E,A,]) x2 | %18
 (D,[F,A,][F,A,]) (D,[F,A,][F,A,]) | (C,[^E,G,C][E,G,C]) (C,F,=E,) | %20
 (^A,,[E,=G,][E,G,]) (B,,B,B,) | (C,[F,^A,][F,A,]) (D,[F,B,][F,B,]) | %22
 (E,[G,B,][G,B,]) (E,[G,D][G,D]) | (A,,E,C, A,,2) z |] %24

